packages/Snapp/src/RecordVoiceIcon/index.svg

<?xml version="1.0" encoding="UTF-8"?>
<svg width="24px" height="24px" viewBox="0 0 24 24" version="1.1" xmlns="http://www.w3.org/2000/svg" xmlns:xlink="http://www.w3.org/1999/xlink">
    <title>Icons/24/Record Voice</title>
    <g id="Icons/24/Record-Voice" stroke="none" stroke-width="1" fill="none" fill-rule="evenodd">
        <rect id="Container" fill-opacity="0" fill="#D8D8D8" fill-rule="nonzero" x="0" y="0" width="24" height="24"></rect>
        <path d="M9.98657274,15.0598068 C12.1251727,15.0598068 13.8711208,16.7269898 13.974972,18.8222852 L13.9798591,19.0199356 L13.9798591,20.0099678 C13.9798591,20.5567475 13.5328953,21 12.9815375,21 C12.4695624,21 12.0476005,20.6178078 11.9899324,20.1254265 L11.9832159,20.0099678 L11.9832159,19.0199356 C11.9832159,17.9760835 11.1687075,17.1208904 10.1355846,17.0453023 L9.98657274,17.0398712 L5.99328637,17.0398712 C4.94069422,17.0398712 4.07834071,17.8476165 4.00211971,18.8721611 L3.99664319,19.0199356 L3.99664319,20.0099678 C3.99664319,20.5567475 3.54967938,21 2.99832159,21 C2.4863465,21 2.06438459,20.6178078 2.00671644,20.1254265 L2,20.0099678 L2,19.0199356 C2,16.8990932 3.68114209,15.1676423 5.79398111,15.0646534 L5.99328637,15.0598068 L9.98657274,15.0598068 Z M19.7227472,3.35890479 C22.6179387,6.8287545 22.7468595,11.8739001 20.1418947,15.6493723 C19.8305422,16.1006271 19.209264,16.216136 18.754231,15.9073688 C18.2991979,15.5986016 18.1827219,14.982482 18.4940743,14.5312273 C20.6051664,11.4715433 20.5010644,7.397649 18.1844471,4.62121301 C17.8329517,4.19995033 17.8923686,3.57587214 18.3171584,3.22729535 C18.7419483,2.87871856 19.3712518,2.93764211 19.7227472,3.35890479 Z M7.98992956,5.15948492 C10.4021199,5.15948492 12.3575865,7.09871466 12.3575865,9.49087576 C12.3575865,11.8830369 10.4021199,13.8222666 7.98992956,13.8222666 C5.57773922,13.8222666 3.62227259,11.8830369 3.62227259,9.49087576 C3.62227259,7.09871466 5.57773922,5.15948492 7.98992956,5.15948492 Z M16.2971299,7.11760798 C17.3704745,8.68558902 17.3672585,10.7462471 16.3161315,12.3432479 C16.0147646,12.8011213 15.396171,12.9300235 14.9344639,12.631159 C14.4727319,12.3322946 14.3427753,11.7188373 14.6441421,11.2609639 C15.2597038,10.3257273 15.2615696,9.13018872 14.6451739,8.22973537 C14.3354971,7.77734811 14.4542573,7.16165758 14.9104324,6.85455208 C15.3666074,6.54744658 15.987453,6.66522072 16.2971299,7.11760798 Z M7.98992956,7.13954931 C6.6804548,7.13954931 5.61891577,8.19227402 5.61891577,9.49087576 C5.61891577,10.7894775 6.6804548,11.8422022 7.98992956,11.8422022 C9.29940431,11.8422022 10.3609433,10.7894775 10.3609433,9.49087576 C10.3609433,8.19227402 9.29940431,7.13954931 7.98992956,7.13954931 Z" id="Combined-Shape" fill="#404040"></path>
    </g>
</svg>

<svg viewBox="0 0 24 24" xmlns="http://www.w3.org/2000/svg" fill="currentColor" focusable="false">
  <path d="M9.987 15.06c2.138 0 3.884 1.667 3.988 3.762l.005.198v.99c0 .547-.447.99-.998.99a.996.996 0 01-.992-.875l-.007-.115v-.99a1.987 1.987 0 00-1.847-1.975l-.15-.005H5.994a1.99 1.99 0 00-1.99 1.832l-.006.148v.99c0 .547-.447.99-.999.99a.996.996 0 01-.991-.875L2 20.01v-.99c0-2.12 1.681-3.852 3.794-3.955l.2-.005h3.993zm9.736-11.701c2.895 3.47 3.024 8.515.419 12.29a1.004 1.004 0 01-1.388.258.985.985 0 01-.26-1.376c2.111-3.06 2.007-7.133-.31-9.91a.984.984 0 01.133-1.394 1.004 1.004 0 011.406.132zM7.99 5.159c2.412 0 4.368 1.94 4.368 4.332s-1.956 4.331-4.368 4.331c-2.412 0-4.368-1.939-4.368-4.331 0-2.392 1.956-4.332 4.368-4.332zm8.307 1.959c1.073 1.568 1.07 3.628.02 5.225-.302.458-.92.587-1.383.288a.985.985 0 01-.29-1.37c.616-.935.618-2.13.001-3.031a.985.985 0 01.265-1.375 1.004 1.004 0 011.387.263zM7.99 7.14a2.361 2.361 0 00-2.371 2.35 2.361 2.361 0 002.37 2.352 2.361 2.361 0 002.372-2.351A2.361 2.361 0 007.99 7.14z" fill="none"/>
</svg>
